X:109
T: Maria Knigin (2-11) S. 41
N: P0884
O: Lothringen
S: PINCK, Louis: Verklingende Weisen, Bd 2, Metz 1928]
R: geistliche, religiöse Lieder]
M: 4/4
L: 1/8
K: Bb
F2 | B3AB2dc | B2A2B2
Bc | d2d2c2B2 | c2z4
c2 | c2Bcd2c2 | B2G2_A2
B2 | F2G2_A2G2 | F2z4

